dist/img/icons/illustrator/illustrator-plain.svg

<svg xmlns="http://www.w3.org/2000/svg" viewBox="0 0 128 128"><path fill-rule="evenodd" clip-rule="evenodd" fill="#FAA625" d="M47.955 69h15.371c-2.646-9-5.252-17.32-7.816-25.776-2.488 8.486-5.012 16.776-7.555 25.776zM124.112 1h-121.239c-2.186 0-1.873.476-1.873 2.585v121.394c0 2.107-.313 2.021 1.719 2.021h121.547c2.031 0 2.734.086 2.734-2.022v-121.239c0-2.263-.702-2.739-2.888-2.739zm-46.814 95c-1.637 0-3.28-.133-4.909-.016-1.175.088-1.568-.406-1.881-1.426-1.514-4.931-3.123-9.86-4.638-14.79-.305-.992-.741-1.354-1.816-1.341-5.523.064-11.049.058-16.573-.007-1.163-.014-1.698.296-2.03 1.45-1.406 4.904-2.944 9.768-4.365 14.667-.308 1.062-.776 1.433-1.904 1.404-3.318-.083-6.641-.032-10.274-.032.959-3.045 1.829-5.861 2.729-8.665 5.514-17.2 11.047-34.4 16.521-51.611.382-1.198.913-1.567 2.143-1.54 3.886.086 7.775.022 11.663 0 .727-.005 1.223.038 1.489.864 6.505 20.116 13.033 40.356 19.555 60.47.028.091.01.573.025.573h-5.735zm20.702 0h-12v-45h12v45zm-6.35-51.071c-3.665-.005-6.289-2.528-6.314-6.07-.024-3.532 2.707-6.159 6.406-6.163 3.728-.004 6.355 2.537 6.384 6.171.026 3.545-2.667 6.068-6.476 6.062z"/></svg>

<svg xmlns="http://www.w3.org/2000/svg" viewBox="0 0 128 128"><path fill-rule="evenodd" clip-rule="evenodd" fill="#FAA625" d="M47.955 69h15.371c-2.646-9-5.252-17.32-7.816-25.776C53.022 51.71 50.498 60 47.955 69zm76.157-68H2.873C.687 1 1 1.476 1 3.585v121.394C1 127.086.687 127 2.719 127h121.547c2.031 0 2.734.086 2.734-2.022V3.739C127 1.476 126.298 1 124.112 1zM77.298 96c-1.637 0-3.28-.133-4.909-.016-1.175.088-1.568-.406-1.881-1.426-1.514-4.931-3.123-9.86-4.638-14.79-.305-.992-.741-1.354-1.816-1.341-5.523.064-11.049.058-16.573-.007-1.163-.014-1.698.296-2.03 1.45-1.406 4.904-2.944 9.768-4.365 14.667-.308 1.062-.776 1.433-1.904 1.404-3.318-.083-6.641-.032-10.274-.032.959-3.045 1.829-5.861 2.729-8.665 5.514-17.2 11.047-34.4 16.521-51.611.382-1.198.913-1.567 2.143-1.54 3.886.086 7.775.022 11.663 0 .727-.005 1.223.038 1.489.864 6.505 20.116 13.033 40.356 19.555 60.47.028.091.01.573.025.573h-5.735zM98 96H86V51h12v45zm-6.35-51.071c-3.665-.005-6.289-2.528-6.314-6.07-.024-3.532 2.707-6.159 6.406-6.163 3.728-.004 6.355 2.537 6.384 6.171.026 3.545-2.667 6.068-6.476 6.062z"/></svg>
